images/preferences/15.svg

<svg width="80" height="64" viewBox="0 0 80 64" fill="none" xmlns="http://www.w3.org/2000/svg">
<path d="M77.5556 27.4577C80.3511 18.1457 64.5012 7.38725 44.9931 8.92023C26.8777 10.3438 0.479281 25.1 1.20368 47.2102C1.45234 54.8 7.82364 62.9909 18.9134 62.5988C29.5215 62.2234 38.7689 46.6578 47.7227 42.3648C59.447 36.7435 73.2468 41.8107 77.5556 27.4577Z" fill="url(#paint0_linear)"/>
<g clip-path="url(#clip0)">
<path d="M44.7867 45.7186C44.7867 46.5578 45.467 47.2369 46.3058 47.2369C47.144 47.2369 47.8232 46.5576 47.8232 45.7186C47.8232 35.7371 39.7029 27.6159 29.7205 27.6159C19.7381 27.6159 11.6169 35.7371 11.6169 45.7186C11.6169 46.5577 12.2971 47.2369 13.1351 47.2369C13.9732 47.2369 14.6534 46.5577 14.6534 45.7186C14.6534 37.4116 21.4126 30.6524 29.7205 30.6524C38.0284 30.6524 44.7867 37.4116 44.7867 45.7186Z" fill="white" stroke="white" stroke-width="0.4"/>
<path d="M19.1354 19.5752C19.1354 25.4121 23.8837 30.1604 29.7206 30.1604C35.5576 30.1604 40.3058 25.4121 40.3058 19.5752C40.3058 13.7391 35.5575 8.99092 29.7206 8.99092C23.8837 8.99092 19.1354 13.7391 19.1354 19.5752ZM22.1719 19.5752C22.1719 15.4137 25.5582 12.0274 29.7206 12.0274C33.8831 12.0274 37.2693 15.4137 37.2693 19.5752C37.2693 23.7376 33.883 27.1239 29.7206 27.1239C25.5582 27.1239 22.1719 23.7376 22.1719 19.5752Z" fill="white" stroke="white" stroke-width="0.4"/>
<path d="M22.7152 29.0115L22.7151 29.0115C20.2138 27.5649 17.6046 26.8288 14.9621 26.8288C6.32252 26.8288 -0.2 33.3225 -0.2 41.9277C-0.2 42.7658 0.480119 43.4459 1.31825 43.4459H11.4644C12.3025 43.4459 12.9826 42.7658 12.9826 41.9277C12.9826 41.0895 12.3025 40.4094 11.4644 40.4094H2.92309C3.62674 34.3015 8.56255 29.8653 14.9621 29.8653C17.0576 29.8653 19.1537 30.4594 21.1948 31.6409L21.195 31.641C21.9207 32.06 22.8497 31.8121 23.2697 31.0864L23.2699 31.0861C23.6887 30.3596 23.4409 29.4315 22.7152 29.0115Z" fill="white" stroke="white" stroke-width="0.4"/>
<path d="M21.3948 14.2665L21.3948 14.2664C19.6928 12.5653 17.4299 11.6276 15.0233 11.6276C10.0538 11.6276 6.01216 15.6693 6.01216 20.6379C6.01216 25.6066 10.0538 29.6491 15.0233 29.6491C17.9778 29.6491 20.7467 28.1958 22.4317 25.7668C22.9108 25.0781 22.7384 24.1317 22.0493 23.6541C21.3601 23.1764 20.4146 23.3474 19.9369 24.0367L19.9369 24.0367C18.8193 25.6492 16.9816 26.6126 15.0233 26.6126C11.7292 26.6126 9.04866 23.9312 9.04866 20.6379C9.04866 17.3438 11.7292 14.6641 15.0233 14.6641C16.6197 14.6641 18.1182 15.2854 19.2478 16.4141C19.8402 17.0074 20.8018 17.0072 21.3948 16.4142C21.988 15.8219 21.9878 14.8595 21.3948 14.2665Z" fill="white" stroke="white" stroke-width="0.4"/>
<path d="M39.8537 28.5526C39.8872 29.3009 40.4632 29.9121 41.207 29.9921C46.9328 30.6119 51.3634 34.9734 52.0659 40.409H46.6175C45.7794 40.409 45.0993 41.0892 45.0993 41.9273C45.0993 42.7654 45.7794 43.4456 46.6175 43.4456H53.6816C54.5197 43.4456 55.1998 42.7654 55.1998 41.9273C55.1998 35.7087 51.3499 30.313 45.7539 28.0359C47.7314 26.3925 48.9381 23.9474 48.9381 21.2246C48.9381 16.2891 44.5068 11.9753 39.4577 11.9753C38.6196 11.9753 37.9394 12.6544 37.9394 13.4935C37.9394 14.3326 38.6196 15.0118 39.4577 15.0118C42.8315 15.0118 45.9016 17.9854 45.9016 21.2246C45.9016 24.046 43.9196 26.4198 41.0695 26.995C40.3354 27.1428 39.8194 27.8048 39.8537 28.5526ZM39.8537 28.5526C39.8537 28.5527 39.8537 28.5527 39.8537 28.5527L40.0535 28.5436L39.8537 28.5525C39.8537 28.5525 39.8537 28.5526 39.8537 28.5526ZM52.2913 40.6091C52.2839 40.5422 52.276 40.4756 52.2676 40.409L52.2913 40.6091Z" fill="white" stroke="white" stroke-width="0.4"/>
</g>
<defs>
<linearGradient id="paint0_linear" x1="1.72778" y1="63.207" x2="62.6626" y2="-11.8" gradientUnits="userSpaceOnUse">
<stop stop-color="#F09642" stop-opacity="0.78"/>
<stop offset="1" stop-color="#F0D542" stop-opacity="0.79"/>
</linearGradient>
<clipPath id="clip0">
<rect width="55" height="55" fill="white" transform="translate(0 0.613281)"/>
</clipPath>
</defs>
</svg>

<svg width="80" height="64" fill="none" xmlns="http://www.w3.org/2000/svg"><path d="M77.556 27.458C80.35 18.146 64.5 7.388 44.993 8.92 26.878 10.344.48 25.1 1.203 47.21c.25 7.59 6.62 15.78 17.71 15.389 10.608-.376 19.856-15.941 28.81-20.234 11.724-5.622 25.524-.554 29.833-14.907Z" fill="url(#a)"/><g clip-path="url(#b)" fill="#fff" stroke="#fff" stroke-width=".4"><path d="M44.787 45.719a1.518 1.518 0 0 0 3.036 0c0-9.982-8.12-18.103-18.102-18.103-9.983 0-18.104 8.121-18.104 18.103a1.518 1.518 0 1 0 3.036 0c0-8.307 6.76-15.067 15.068-15.067 8.307 0 15.066 6.76 15.066 15.067Z"/><path d="M19.135 19.575c0 5.837 4.749 10.585 10.586 10.585 5.837 0 10.585-4.748 10.585-10.585 0-5.836-4.748-10.584-10.585-10.584-5.837 0-10.586 4.748-10.586 10.584Zm3.037 0c0-4.161 3.386-7.548 7.549-7.548 4.162 0 7.548 3.387 7.548 7.548 0 4.163-3.386 7.549-7.548 7.549-4.163 0-7.55-3.386-7.55-7.549ZM22.715 29.012c-2.501-1.447-5.11-2.183-7.753-2.183C6.322 26.829-.2 33.322-.2 41.928c0 .838.68 1.518 1.518 1.518h10.146a1.519 1.519 0 0 0 0-3.037h-8.54c.703-6.108 5.639-10.544 12.038-10.544 2.096 0 4.192.594 6.233 1.776a1.52 1.52 0 0 0 1.52-2.63Z"/><path d="M21.395 14.267a8.955 8.955 0 0 0-6.372-2.64c-4.97 0-9.01 4.042-9.01 9.01 0 4.97 4.04 9.012 9.01 9.012a9.022 9.022 0 0 0 7.409-3.882 1.517 1.517 0 1 0-2.495-1.73 5.983 5.983 0 0 1-4.914 2.576 5.982 5.982 0 0 1-5.974-5.975 5.981 5.981 0 0 1 5.974-5.974c1.597 0 3.095.621 4.225 1.75a1.518 1.518 0 1 0 2.147-2.148ZM39.854 28.553c.033.748.61 1.36 1.353 1.44 5.726.619 10.156 4.98 10.859 10.416h-5.449a1.519 1.519 0 0 0 0 3.037h7.065c.838 0 1.518-.68 1.518-1.519 0-6.218-3.85-11.614-9.446-13.891a8.8 8.8 0 0 0 3.184-6.811c0-4.936-4.431-9.25-9.48-9.25a1.518 1.518 0 1 0 0 3.037c3.373 0 6.444 2.973 6.444 6.213 0 2.821-1.982 5.195-4.833 5.77-.734.148-1.25.81-1.215 1.558Zm0 0 .2-.01-.2.01ZM52.29 40.609a13.161 13.161 0 0 0-.023-.2l.023.2Z"/></g><defs><linearGradient id="a" x1="1.728" y1="63.207" x2="62.663" y2="-11.8" gradientUnits="userSpaceOnUse"><stop stop-color="#F09642" stop-opacity=".78"/><stop offset="1" stop-color="#F0D542" stop-opacity=".79"/></linearGradient><clipPath id="b"><path fill="#fff" transform="translate(0 .613)" d="M0 0h55v55H0z"/></clipPath></defs></svg>
